X: 2016
M: C
L: 1/8
K: A
uc |\
ud |\
(ce)Te2 (cf)Tf2 | ecBA BFFd |
(ce)Te2 cefg | agfe fefg |\
agfe fgaf | ecdB cAFA |\


